X:121
T:The Bridge of Athlone
N:A Seven Part March   Allan's # 121
N:Trad/Anon.
N:CONVERTED FROM NOTEWORTHY COMPOSER  (WWW.NOTEWORTHYSOFTWARE.COM) BY
N:ABC2NWC (HTTP://MEMBERS.AOL.COM/ABACUSMUSIC/), WITH
N:Bloody strange, the Irish, ain't?
N:Allan's Transcription dedicated to Mike Miller who, even though a "cousin of Briscoe's" is the most Irish-man
N:I ever met.  Thanks to him for getting me involved in Irish traditional and keeping me involved in it.   Slainte Sale A Gut!
Z: (INTO NWC) VINCE BRENNAN 2002   (WWW.SOSYOURMOM.COM)
I:abc2nwc
M:2/2
L:1/8
K:G
D2|G2(G3/2A/2) B2(gf)|e3/2d/2ef e2(dc)|B2(GB) A2(FA)|G2GF E3F|
G2GA B2(gf)|e3/2d/2ef e2dc|B2(GB) A2(FA)|G2G3/2G/2 G2:|
|:G2|e2e3/2d/2 BAGF|d2d3/2B/2 AGFE|B2B3/2A/2 GFED|d2D3/2E/2 D2D2|
EDEF GFGA|BABd edef|g3/2f/2ed B2AB|G2G3/2G/2 G2:|
"^  Jig   "[M:6/8]|:d|d^cd BGB|cBc AFD|DGG FGA|BGB ABc|
d^cd BGB|cBc AFD|DGG FAA|BGG G2:|
"^MARCH"[M:2/2]|:D(3D E) G2G2|A3/2G/2AB A3/2 G|EcBc d B|G(G3/2A/2)B A G E|
D2(DF) A2A2|A3/2G/2AB A2G2|E2c2BcdB|G2G3/2G/2 G4:|
|:B3c d2B2|c2B2A2G2|B3c d2B2|cBAG E2z2|
B3c d2B2|c2B2A2G2|E2c2BcdB|[1G3/2G/2 G2G4:|[2G2G3/2A/2 BAGE||
"^  Jig   "[M:6/8]|:d|d^cd BGB|cBc AFD|DGG FGA|BGB ABc|
d^cd BGB|cBc AFD|DGG FAA|BGG G2:|
"^MARCH"[M:2/2]|:(GA)|Bdg3/2g/2 g2{ag}fe|dBB3/2B/2 B2{cB}AG|Bdce dBGB|A2A3/2A/2 A2(GA)|
Bdg3/2g/2 g2{ag}fe|dBB3/2B/2 B2{cB}AG|Bdge dBAB|G2G3/2G/2 G2:|
|:(f g)|afd3/2d/2 d2(ga)|bge3/2f/2 e2(ga)|bgaf gedB|A2A3/2A/2 A2(GA)|
Bdg3/2g/2 g2{ag}fe|dBB3/2B/2 B2{cB}AG|Bdge dBAB|G2G3/2G/2 G2:|
"^  Jig   "[M:6/8]|:d|d^cd BGB|cBc AFD|DGG FGA|BGB ABc|
d^cd BGB|cBc AFD|DGG FAA|BGG G2:|
"^MARCH"[M:2/2]|:G2B3/2c/2 d2(Bd)|b2g3/2e/2 d2(cB)|A2A3/2B/2 c2(BA)|G2B3/2c/2 d4|
G2B3/2c/2 d2(Bd)|b2(ge) d2(cB)|A2a3/2g/2 fdef|g2g3/2a/2 g2z2:|
|:b2b3/2a/2 (ge) d2|g2g3/2e/2 (dB) G2|c2cc B2dB|A2A3/2B/2 (A2A2)|
G2Bc de d2|b2ge dcBc|A2a3/2g/2 fdef|g2g3/2a/2 g2z2:|
